data/icons/scalable/actions/search-symbolic.svg

<?xml version="1.0" encoding="UTF-8"?>
<svg height="16px" viewBox="0 0 16 16" width="16px" xmlns="http://www.w3.org/2000/svg">
    <path d="m 6.5 0 c -3.578125 0 -6.5 2.921875 -6.5 6.5 s 2.921875 6.5 6.5 6.5 c 1.429688 0 2.753906 -0.46875 3.828125 -1.257812 l 2.945313 2.945312 c 0.957031 0.9375 2.363281 -0.5 1.40625 -1.4375 l -2.929688 -2.929688 c 0.785156 -1.074218 1.25 -2.394531 1.25 -3.820312 c 0 -3.578125 -2.921875 -6.5 -6.5 -6.5 z m 0 2 c 2.496094 0 4.5 2.003906 4.5 4.5 s -2.003906 4.5 -4.5 4.5 s -4.5 -2.003906 -4.5 -4.5 s 2.003906 -4.5 4.5 -4.5 z m 0 0" fill="#222222"/>
</svg>

<svg xmlns="http://www.w3.org/2000/svg" width="16" height="16" viewBox="0 0 16 16"><path fill="#222" d="M6.5 0C2.922 0 0 2.922 0 6.5S2.922 13 6.5 13c1.43 0 2.754-.469 3.828-1.258l2.945 2.945c.957.938 2.364-.5 1.407-1.437l-2.93-2.93A6.45 6.45 0 0 0 13 6.5C13 2.922 10.078 0 6.5 0m0 2C8.996 2 11 4.004 11 6.5S8.996 11 6.5 11 2 8.996 2 6.5 4.004 2 6.5 2m0 0"/></svg>
